X: 1127
T: Pretty Little Cat
C:Traditional
B: max new tunes
B: steve tunes
M:4/4
Q: 1/4=140
K:Am
V:1 
eg|"A"a2agedc2|A6eg|a2ag ed cd |"E7"e3ge2 eg|
"A"a2 ag ed c2|A3A cA cA|"E7"E2EE GE G2|"A"A6:|
e2-|"A"e2d2 cA c2|A6e2-|e2d2cAc2|"E7"E6 e2-|
"A"e2d2 cA c2|A3A cA cA|"E7"E2EE GE G2|"A"A6:|
W: 
% abcbook-tune_id 62b6584780e5a717f15693fa


% abcbook-boost 11
% abcbook-tablature 
% abcbook-transpose 
% abcbook-lastupdated 1656290935926
% abcbook-soundfonts 
% abcbook-repeats 3


